X:218
T:Reel 218
M:4/4
K:Dmix
L:1/8
ed|=cAFB AGBG|EG=cA AGEF|BGGF GBdB||Aced cABG:||2Addc d2|de|f2fa e2ec|dced BcAg|fgaf efge|fdec dcAg|agfa g2eg|fded cAAg|fgfd efec|Addc dfed|
